X:350
T: Guizhou Shange
N: C1289
O: China, Guizhou
S: MM, ZHONGGUO MINGE XUAN S.225]
N: Verzierungen
R: Shange]
M: 2/4
L: 1/16
K: C
G2G2A2c2 | A2G2Acd2 | d8- | d8
A2c2d2dc | A2G2A2c2 | G8- | G8
A2c2d2d2 | d4c4 | A4G4
A2c2d2dc | A2G2A2c2 | G8- | G8

